src/icons/camera.svg

<svg xmlns="http://www.w3.org/2000/svg" width="512" height="512" viewBox="0 0 512 512">
    <path d="M390.2 165.7h-51.9l-31.1-31.4-.2-.2-.2-.2c-4.6-4.6-10.8-7.5-17.9-7.5h-64.6c-7.5 0-14.2 3.2-18.9 8.4v.1L175 165.7h-53.1c-14.3 0-25.8 11.2-25.8 25.5v155.5c0 14.3 11.5 25.9 25.8 25.9h268.4c14.2 0 25.8-11.6 25.8-25.9V191.3c-.1-14.3-11.7-25.6-25.9-25.6zM256 333.8c-39.2 0-71.1-32-71.1-71.2 0-39.3 31.9-71.2 71.1-71.2 39.2 0 71.1 31.9 71.1 71.2 0 39.2-31.9 71.2-71.1 71.2zm129.3-126.9c-5.9 0-10.8-4.8-10.8-10.8 0-6 4.8-10.8 10.8-10.8 5.9 0 10.8 4.8 10.8 10.8 0 5.9-4.9 10.8-10.8 10.8z"/>
    <path d="M256 159.2c-29.7 0-53.7 24.1-53.7 53.8 0 29.7 24 53.8 53.7 53.8 29.6 0 53.7-24.1 53.7-53.8 0-29.7-24.1-53.8-53.7-53.8z"/>
</svg>

<?xml version="1.0" encoding="UTF-8"?>
<svg width="512px" height="512px" viewBox="0 0 512 512" version="1.1" xmlns="http://www.w3.org/2000/svg" xmlns:xlink="http://www.w3.org/1999/xlink">
    <!-- Generator: Sketch 62 (91390) - https://sketch.com -->
    <title>camera</title>
    <desc>Created with Sketch.</desc>
    <g id="camera" stroke="none" stroke-width="1" fill="none" fill-rule="evenodd">
        <path d="M390.2,165.7 L338.3,165.7 L307.2,134.3 L307,134.1 L306.8,133.9 C302.2,129.3 296,126.4 288.9,126.4 L224.3,126.4 C216.8,126.4 210.1,129.6 205.4,134.8 L205.4,134.9 L175,165.7 L121.9,165.7 C107.6,165.7 96.1,176.9 96.1,191.2 L96.1,346.7 C96.1,361 107.6,372.6 121.9,372.6 L390.3,372.6 C404.5,372.6 416.1,361 416.1,346.7 L416.1,191.3 C416,177 404.4,165.7 390.2,165.7 Z M256,333.8 C216.8,333.8 184.9,301.8 184.9,262.6 C184.9,223.3 216.8,191.4 256,191.4 C295.2,191.4 327.1,223.3 327.1,262.6 C327.1,301.8 295.2,333.8 256,333.8 Z M385.3,206.9 C379.4,206.9 374.5,202.1 374.5,196.1 C374.5,190.1 379.3,185.3 385.3,185.3 C391.2,185.3 396.1,190.1 396.1,196.1 C396.1,202 391.2,206.9 385.3,206.9 Z" id="Shape" fill="#000000" fill-rule="nonzero"></path>
        <path d="M256,159.2 C226.3,159.2 202.3,183.3 202.3,213 C202.3,242.7 226.3,266.8 256,266.8 C285.6,266.8 309.7,242.7 309.7,213 C309.7,183.3 285.6,159.2 256,159.2 Z" id="Path" fill="#000000" fill-rule="nonzero"></path>
    </g>
</svg>
